assets/images/logos/whisp-logo-vertical.svg

<?xml version="1.0" encoding="UTF-8"?><svg id="Layer_2" xmlns="http://www.w3.org/2000/svg" viewBox="0 0 92.739 116.3582"><g id="Components"><g id="_11d87d1b-b963-48c7-880b-39b3844ecfc3_10"><path d="M84.688,107.3466c.991,0,1.796-.3613,2.415-1.0838.62-.7226.929-1.8478.929-3.3755,0-1.5071-.309-2.6167-.929-3.329-.619-.7122-1.424-1.0684-2.415-1.0684-1.012,0-1.827.3562-2.447,1.0684-.619.7123-.929,1.8219-.929,3.329,0,1.5277.31,2.6529.929,3.3755.62.7225,1.435,1.0838,2.447,1.0838ZM79.052,116.3582c-1.569,0-2.354-.7949-2.354-2.3845v-16.5676c0-1.569.764-2.3535,2.292-2.3535,1.548,0,2.322.7845,2.322,2.3535v.0929c.434-.7639,1.074-1.3729,1.92-1.8271.847-.4542,1.797-.6813,2.849-.6813,1.322,0,2.483.32,3.484.96,1.002.64,1.781,1.5484,2.338,2.7252.558,1.1767.836,2.5806.836,4.2115s-.278,3.04-.836,4.2271c-.557,1.1871-1.336,2.1058-2.338,2.7561-1.001.6503-2.162.9755-3.484.9755-1.011,0-1.935-.2168-2.771-.6504-.836-.4335-1.481-1.0116-1.936-1.7341v5.5122c0,1.5896-.774,2.3845-2.322,2.3845ZM67.284,110.846c-.908,0-1.842-.0826-2.802-.2478-.96-.1651-1.833-.4439-2.617-.8361-.516-.2684-.852-.609-1.007-1.0219-.154-.4129-.16-.8155-.015-1.2078.145-.3922.403-.6864.774-.8825.372-.1962.805-.191,1.301.0154.846.351,1.626.5988,2.338.7433.712.1445,1.399.2167,2.059.2167.867,0,1.507-.1393,1.92-.418s.62-.6452.62-1.0994c0-.7225-.527-1.1767-1.58-1.3625l-3.251-.5884c-1.301-.2271-2.292-.6916-2.973-1.3935-.682-.702-1.022-1.6207-1.022-2.7561,0-1.0323.289-1.92.867-2.6632.578-.7433,1.373-1.3213,2.384-1.7342,1.012-.4129,2.178-.6194,3.5-.6194,1.816,0,3.427.351,4.831,1.0529.474.2271.769.5471.882.96.114.4129.088.8155-.077,1.2077-.165.3923-.434.6865-.805.8826-.372.1961-.816.1807-1.332-.0464-.681-.3097-1.301-.5316-1.858-.6658-.557-.1342-1.084-.2013-1.579-.2013-.929,0-1.6.1496-2.013.449-.413.2994-.62.6761-.62,1.1303,0,.7226.486,1.1768,1.456,1.3626l3.251.5884c1.342.2271,2.364.6761,3.066,1.347.702.671,1.053,1.5845,1.053,2.7407,0,1.5896-.619,2.8283-1.858,3.7161-1.239.8877-2.87,1.3316-4.893,1.3316ZM55.517,110.753c-.764,0-1.347-.2219-1.75-.6658-.403-.4438-.604-1.0683-.604-1.8735v-10.5908c0-1.7136.785-2.5703,2.354-2.5703.743,0,1.316.2219,1.718.6658.403.4438.604,1.0787.604,1.9045v10.5908c0,.8052-.196,1.4297-.588,1.8735-.392.4439-.971.6658-1.734.6658ZM37.091,110.784c-1.569,0-2.354-.7948-2.354-2.3845v-17.6204c0-1.5897.785-2.3845,2.354-2.3845,1.548,0,2.323.7948,2.323,2.3845v6.596c.536-.7845,1.228-1.378,2.074-1.7806.847-.4026,1.786-.6039,2.818-.6039,3.572,0,5.358,2.1265,5.358,6.3793v7.0296c0,1.5897-.785,2.3845-2.354,2.3845-.743,0-1.316-.2064-1.718-.6193-.403-.4129-.604-1.0013-.604-1.7652v-6.8128c0-1.0529-.196-1.8116-.589-2.2761-.392-.4645-.97-.6968-1.734-.6968-.991,0-1.781.3097-2.369.929-.588.6194-.882,1.4452-.882,2.4774v6.3793c0,1.5897-.775,2.3845-2.323,2.3845ZM9.041,110.784c-.681,0-1.223-.16-1.626-.48-.402-.32-.728-.8103-.975-1.4709L.184,91.2436c-.289-.7845-.237-1.4555.155-2.0129.392-.5574,1.063-.8361,2.013-.8361.661,0,1.172.1548,1.533.4645s.655.7948.882,1.4554l4.46,13.2851,4.707-13.2541c.227-.6606.526-1.1509.898-1.4709.371-.32.857-.48,1.455-.48.578,0,1.043.16,1.394.48.351.32.65.8206.898,1.5019l4.552,13.4708,4.645-13.5328c.207-.6399.496-1.1199.867-1.4399.372-.32.878-.48,1.518-.48.805,0,1.393.2787,1.765.8361.372.5574.413,1.2284.124,2.0129l-6.318,17.6204c-.227.64-.542,1.12-.944,1.44-.403.32-.934.48-1.595.48s-1.187-.16-1.579-.48-.712-.8103-.96-1.4709l-4.521-12.8205-4.584,12.8514c-.247.64-.562,1.12-.944,1.44-.382.32-.903.48-1.564.48Z" style="fill:#0d6efd; fill-rule:evenodd; stroke-width:0px;"/><path d="M55.517,92.5132c-.867,0-1.533-.2013-1.998-.6038-.464-.4026-.697-.9755-.697-1.7187,0-.7639.233-1.3471.697-1.7497.465-.4026,1.131-.6038,1.998-.6038,1.775,0,2.663.7845,2.663,2.3535,0,1.5483-.888,2.3225-2.663,2.3225Z" style="fill:#0d6efd; stroke-width:0px;"/><path d="M55.893,15.841c-.878.877-2.301.877-3.178,0l-.001-.001c-.877-.878-.877-2.301,0-3.178l3.178-3.178c.877-.877,2.3-.877,3.178,0v.001c.878.878.878,2.301,0,3.178l-3.177,3.178ZM61.147,26.373c-1.241,0-2.247-1.006-2.247-2.247v-.001c0-1.241,1.006-2.247,2.247-2.247h4.494c1.241,0,2.247,1.006,2.247,2.247v.001c0,1.241-1.006,2.247-2.247,2.247h-4.494ZM46.217,6.741c0,1.241-1.006,2.247-2.247,2.247h-.001c-1.241,0-2.248-1.006-2.248-2.247V2.247c0-1.241,1.007-2.247,2.248-2.247h.001c1.241,0,2.247,1.006,2.247,2.247v4.494ZM3.716,77.433c-.622.623-1.559.809-2.372.472-.813-.337-1.344-1.13-1.344-2.011v-33.103l.024-.023c-.006-.133-.011-.266-.014-.399-.006-.238-.01-.477-.01-.716v-13.136c0-3.497,1.39-6.851,3.863-9.324,2.473-2.473,5.827-3.863,9.325-3.863h26.408c7.283,0,13.188,5.904,13.188,13.187v13.852h-.06c-.004.133-.009.266-.014.399l.074.073v12.085c0,7.283-5.905,13.187-13.188,13.187H13.036l-9.32,9.32Z" style="fill:#0d6efd; fill-rule:evenodd; stroke-width:0px;"/><path d="M18.706,54.724c-.793,0-1.422-.192-1.89-.565-.461-.367-.838-.926-1.122-1.683-.001-.003-.002-.005-.003-.007l-6.791-20.48c-.339-.922-.268-1.71.194-2.366.459-.652,1.238-.993,2.349-.993.774,0,1.371.19,1.794.553.415.355.757.909,1.018,1.667,0,.002.001.004.002.006l4.664,15.23,4.909-13.82c.26-.757.607-1.316,1.033-1.683.437-.376,1.006-.569,1.711-.569.684,0,1.232.194,1.648.573.4.365.745.933,1.028,1.71,0,.002.001.003.001.004l4.743,14.035,4.668-15.434c0-.001,0-.003.001-.004.237-.736.574-1.285,1.001-1.653.436-.376,1.027-.57,1.778-.57.952,0,1.644.338,2.083.997.436.654.495,1.441.157,2.362l-6.663,20.467c0,.002-.001.003-.001.005-.261.736-.627,1.285-1.09,1.653-.469.373-1.086.565-1.856.565-.771,0-1.384-.193-1.841-.566-.449-.367-.82-.926-1.103-1.682-.001-.001-.001-.003-.002-.004l-4.721-13.389-4.787,13.423c-.001.002-.002.004-.002.005-.284.732-.647,1.279-1.084,1.645-.446.374-1.054.568-1.826.568Z" style="fill:#fff; fill-rule:evenodd; stroke-width:0px;"/></g></g></svg>

<?xml version="1.0" encoding="UTF-8" standalone="no"?>
<!DOCTYPE svg PUBLIC "-//W3C//DTD SVG 1.1//EN" "http://www.w3.org/Graphics/SVG/1.1/DTD/svg11.dtd">
<svg width="100%" height="100%" viewBox="0 0 93 117" version="1.1" xmlns="http://www.w3.org/2000/svg" xmlns:xlink="http://www.w3.org/1999/xlink" xml:space="preserve" xmlns:serif="http://www.serif.com/" style="fill-rule:evenodd;clip-rule:evenodd;stroke-linejoin:round;stroke-miterlimit:2;">
    <g id="Components">
        <g id="_11d87d1b-b963-48c7-880b-39b3844ecfc3_7">
            <path d="M84.688,107.347C85.679,107.347 86.484,106.985 87.103,106.263C87.723,105.54 88.032,104.415 88.032,102.887C88.032,101.38 87.723,100.271 87.103,99.558C86.484,98.846 85.679,98.49 84.688,98.49C83.676,98.49 82.861,98.846 82.241,99.558C81.622,100.271 81.312,101.38 81.312,102.887C81.312,104.415 81.622,105.54 82.241,106.263C82.861,106.985 83.676,107.347 84.688,107.347ZM79.052,116.358C77.483,116.358 76.698,115.563 76.698,113.974L76.698,97.406C76.698,95.837 77.462,95.053 78.99,95.053C80.538,95.053 81.312,95.837 81.312,97.406L81.312,97.499C81.746,96.735 82.386,96.126 83.232,95.672C84.079,95.218 85.029,94.991 86.081,94.991C87.403,94.991 88.564,95.311 89.565,95.951C90.567,96.591 91.346,97.499 91.903,98.676C92.461,99.852 92.739,101.256 92.739,102.887C92.739,104.518 92.461,105.927 91.903,107.114C91.346,108.301 90.567,109.22 89.565,109.87C88.564,110.521 87.403,110.846 86.081,110.846C85.07,110.846 84.146,110.629 83.31,110.196C82.474,109.762 81.829,109.184 81.374,108.461L81.374,113.974C81.374,115.563 80.6,116.358 79.052,116.358ZM67.284,110.846C66.376,110.846 65.442,110.763 64.482,110.598C63.522,110.433 62.649,110.154 61.865,109.762C61.349,109.494 61.013,109.153 60.858,108.74C60.704,108.327 60.698,107.925 60.843,107.532C60.988,107.14 61.246,106.846 61.617,106.65C61.989,106.454 62.422,106.459 62.918,106.665C63.764,107.016 64.544,107.264 65.256,107.409C65.968,107.553 66.655,107.625 67.315,107.625C68.182,107.625 68.822,107.486 69.235,107.207C69.648,106.929 69.855,106.562 69.855,106.108C69.855,105.385 69.328,104.931 68.275,104.745L65.024,104.157C63.723,103.93 62.732,103.465 62.051,102.764C61.369,102.062 61.029,101.143 61.029,100.007C61.029,98.975 61.318,98.087 61.896,97.344C62.474,96.601 63.269,96.023 64.28,95.61C65.292,95.197 66.458,94.991 67.78,94.991C69.596,94.991 71.207,95.342 72.611,96.043C73.085,96.271 73.38,96.591 73.493,97.003C73.607,97.416 73.581,97.819 73.416,98.211C73.251,98.604 72.982,98.898 72.611,99.094C72.239,99.29 71.795,99.274 71.279,99.047C70.598,98.738 69.978,98.516 69.421,98.382C68.864,98.247 68.337,98.18 67.842,98.18C66.913,98.18 66.242,98.33 65.829,98.629C65.416,98.929 65.209,99.305 65.209,99.76C65.209,100.482 65.695,100.936 66.665,101.122L69.916,101.711C71.258,101.938 72.28,102.387 72.982,103.058C73.684,103.729 74.035,104.642 74.035,105.798C74.035,107.388 73.416,108.627 72.177,109.514C70.938,110.402 69.307,110.846 67.284,110.846ZM55.517,110.753C54.753,110.753 54.17,110.531 53.767,110.087C53.364,109.643 53.163,109.019 53.163,108.214L53.163,97.623C53.163,95.909 53.948,95.053 55.517,95.053C56.26,95.053 56.833,95.274 57.235,95.718C57.638,96.162 57.839,96.797 57.839,97.623L57.839,108.214C57.839,109.019 57.643,109.643 57.251,110.087C56.859,110.531 56.28,110.753 55.517,110.753ZM37.091,110.784C35.522,110.784 34.737,109.989 34.737,108.4L34.737,90.779C34.737,89.189 35.522,88.395 37.091,88.395C38.639,88.395 39.414,89.189 39.414,90.779L39.414,97.375C39.95,96.591 40.642,95.997 41.488,95.595C42.335,95.192 43.274,94.991 44.306,94.991C47.878,94.991 49.664,97.117 49.664,101.37L49.664,108.4C49.664,109.989 48.879,110.784 47.31,110.784C46.567,110.784 45.994,110.578 45.592,110.165C45.189,109.752 44.988,109.163 44.988,108.4L44.988,101.587C44.988,100.534 44.792,99.775 44.399,99.311C44.007,98.846 43.429,98.614 42.665,98.614C41.674,98.614 40.884,98.924 40.296,99.543C39.708,100.162 39.414,100.988 39.414,102.02L39.414,108.4C39.414,109.989 38.639,110.784 37.091,110.784ZM9.041,110.784C8.36,110.784 7.818,110.624 7.415,110.304C7.013,109.984 6.687,109.494 6.44,108.833L0.184,91.244C-0.105,90.459 -0.053,89.788 0.339,89.231C0.731,88.673 1.402,88.395 2.352,88.395C3.013,88.395 3.524,88.549 3.885,88.859C4.246,89.169 4.54,89.654 4.767,90.315L9.227,103.6L13.934,90.346C14.161,89.685 14.46,89.195 14.832,88.875C15.203,88.555 15.689,88.395 16.287,88.395C16.865,88.395 17.33,88.555 17.681,88.875C18.032,89.195 18.331,89.695 18.579,90.377L23.131,103.847L27.776,90.315C27.983,89.675 28.272,89.195 28.643,88.875C29.015,88.555 29.521,88.395 30.161,88.395C30.966,88.395 31.554,88.673 31.926,89.231C32.298,89.788 32.339,90.459 32.05,91.244L25.732,108.864C25.505,109.504 25.19,109.984 24.788,110.304C24.385,110.624 23.854,110.784 23.193,110.784C22.532,110.784 22.006,110.624 21.614,110.304C21.222,109.984 20.902,109.494 20.654,108.833L16.133,96.013L11.549,108.864C11.302,109.504 10.987,109.984 10.605,110.304C10.223,110.624 9.702,110.784 9.041,110.784Z" style="fill:white;"/>
            <path d="M55.517,92.513C54.65,92.513 53.984,92.312 53.519,91.909C53.055,91.507 52.822,90.934 52.822,90.191C52.822,89.427 53.055,88.844 53.519,88.441C53.984,88.038 54.65,87.837 55.517,87.837C57.292,87.837 58.18,88.622 58.18,90.191C58.18,91.739 57.292,92.513 55.517,92.513Z" style="fill:rgb(13,110,253);fill-rule:nonzero;"/>
            <path d="M55.893,15.841C55.015,16.718 53.592,16.718 52.715,15.841L52.714,15.84C51.837,14.962 51.837,13.539 52.714,12.662L55.892,9.484C56.769,8.607 58.192,8.607 59.07,9.484L59.07,9.485C59.948,10.363 59.948,11.786 59.07,12.663L55.893,15.841ZM61.147,26.373C59.906,26.373 58.9,25.367 58.9,24.126L58.9,24.125C58.9,22.884 59.906,21.878 61.147,21.878L65.641,21.878C66.882,21.878 67.888,22.884 67.888,24.125L67.888,24.126C67.888,25.367 66.882,26.373 65.641,26.373L61.147,26.373ZM46.217,6.741C46.217,7.982 45.211,8.988 43.97,8.988L43.969,8.988C42.728,8.988 41.721,7.982 41.721,6.741L41.721,2.247C41.721,1.006 42.728,0 43.969,0L43.97,0C45.211,0 46.217,1.006 46.217,2.247L46.217,6.741ZM3.716,77.433C3.094,78.056 2.157,78.242 1.344,77.905C0.531,77.568 0,76.775 0,75.894L0,42.791L0.024,42.768C0.018,42.635 0.013,42.502 0.01,42.369C0.004,42.131 0,41.892 0,41.653L0,28.517C0,25.02 1.39,21.666 3.863,19.193C6.336,16.72 9.69,15.33 13.188,15.33L39.596,15.33C46.879,15.33 52.784,21.234 52.784,28.517L52.784,42.369L52.724,42.369C52.72,42.502 52.715,42.635 52.71,42.768L52.784,42.841L52.784,54.926C52.784,62.209 46.879,68.113 39.596,68.113L13.036,68.113L3.716,77.433Z" style="fill:rgb(13,110,253);"/>
            <path d="M18.706,54.724C17.913,54.724 17.284,54.532 16.816,54.159C16.355,53.792 15.978,53.233 15.694,52.476C15.693,52.473 15.692,52.471 15.691,52.469L8.9,31.989C8.561,31.067 8.632,30.279 9.094,29.623C9.553,28.971 10.332,28.63 11.443,28.63C12.217,28.63 12.814,28.82 13.237,29.183C13.652,29.538 13.994,30.092 14.255,30.85C14.255,30.852 14.256,30.854 14.257,30.856L18.921,46.086L23.83,32.266C24.09,31.509 24.437,30.95 24.863,30.583C25.3,30.207 25.869,30.014 26.574,30.014C27.258,30.014 27.806,30.208 28.222,30.587C28.622,30.952 28.967,31.52 29.25,32.297C29.25,32.299 29.251,32.3 29.251,32.301L33.994,46.336L38.662,30.902C38.662,30.901 38.662,30.899 38.663,30.898C38.9,30.162 39.237,29.613 39.664,29.245C40.1,28.869 40.691,28.675 41.442,28.675C42.394,28.675 43.086,29.013 43.525,29.672C43.961,30.326 44.02,31.113 43.682,32.034L37.019,52.501C37.019,52.503 37.018,52.504 37.018,52.506C36.757,53.242 36.391,53.791 35.928,54.159C35.459,54.532 34.842,54.724 34.072,54.724C33.301,54.724 32.688,54.531 32.231,54.158C31.782,53.791 31.411,53.232 31.128,52.476C31.127,52.475 31.127,52.473 31.126,52.472L26.405,39.083L21.618,52.506C21.617,52.508 21.616,52.51 21.616,52.511C21.332,53.243 20.969,53.79 20.532,54.156C20.086,54.53 19.478,54.724 18.706,54.724Z" style="fill:white;"/>
        </g>
    </g>
</svg>
